brandFactory_export/2.Regular/Aeropuerto_Avion_2Regular.svg

<?xml version="1.0" encoding="UTF-8"?>
<svg width="24px" height="24px" viewBox="0 0 24 24" version="1.1" xmlns="http://www.w3.org/2000/svg" xmlns:xlink="http://www.w3.org/1999/xlink">
    <title>2.Regular/Aeropuerto_Avion_2Regular</title>
    <g id="Symbols" stroke="none" stroke-width="1" fill="none" fill-rule="evenodd">
        <g id="2.Regular/Aeropuerto_Avion_2Regular" fill="#5CB615" fill-rule="nonzero">
            <path d="M21.5159664,4.52773109 C21.189916,4.82352941 16.9579832,8.68571429 16.9579832,8.68571429 C16.7798319,8.85042017 16.692437,9.09243697 16.7294118,9.33445378 L18.3260504,19.4722689 L17.7680672,19.7445378 L14.2588235,12.3529412 C14.1613445,12.1478992 13.9731092,12 13.7478992,11.9529412 C13.5260504,11.9058824 13.2941176,11.9697479 13.1260504,12.1210084 C11.687395,13.394958 10.810084,14.2823529 10.0369748,15.0621849 C9.1092437,15.9966387 8.37983193,16.7327731 7.05882353,17.7445378 C6.86386555,17.8957983 6.75966387,18.1310924 6.77647059,18.3764706 L7.03865546,21.7882353 L6.61512605,21.9932773 L4.74621849,18.8504202 C4.68907563,18.7563025 4.61176471,18.6756303 4.5210084,18.6151261 L1.72436975,16.7764706 L1.92268908,16.4739496 L5.11260504,16.7058824 C5.3512605,16.7193277 5.58991597,16.6184874 5.73781513,16.4268908 C6.71596639,15.1596639 7.46218487,14.4336134 8.40672269,13.5159664 C9.20672269,12.7394958 10.1109244,11.8621849 11.394958,10.4369748 C11.5495798,10.2655462 11.6134454,10.0302521 11.5663866,9.80840336 C11.5193277,9.58319328 11.3714286,9.39159664 11.1630252,9.29747899 L3.8487395,5.91596639 L4.21848739,5.32773109 L14.3361345,6.81344538 C14.5714286,6.84369748 14.810084,6.76302521 14.9714286,6.58823529 C16.497479,4.94117647 19.0117647,2.24537815 19.2605042,2.02016807 C20.1008403,1.26386555 20.8806723,1.30420168 21.6369748,2.14453782 C22.3966387,2.98823529 22.3563025,3.76806723 21.5159664,4.52773109 M22.7159664,1.17647059 C21.4218487,-0.258823529 19.7310924,-0.349579832 18.2991597,0.944537815 C17.9731092,1.23697479 15.1966387,4.22521008 14.1747899,5.32773109 L3.96638655,3.82857143 C3.68403361,3.78823529 3.40168067,3.91596639 3.25042017,4.15798319 L2.18823529,5.84201681 C2.07731092,6.02016807 2.04705882,6.23529412 2.10756303,6.43361345 C2.16470588,6.63193277 2.3092437,6.8 2.49747899,6.88403361 L9.65378151,10.194958 C8.7394958,11.1764706 8.03697479,11.8621849 7.39831933,12.4773109 C6.4907563,13.3613445 5.75798319,14.0739496 4.83361345,15.2336134 L1.60336134,15.0016807 C1.34453782,14.9882353 1.08907563,15.1058824 0.94789916,15.3277311 L0.121008403,16.5915966 C-0.0974789916,16.9243697 -0.00672268908,17.3747899 0.329411765,17.5932773 L3.58991597,19.7378151 L5.71428571,23.307563 C5.8487395,23.5327731 6.0907563,23.6605042 6.33613445,23.6605042 C6.44033613,23.6605042 6.54789916,23.6369748 6.6487395,23.589916 L8.11428571,22.8840336 C8.38319328,22.7563025 8.54453782,22.4739496 8.5210084,22.1747899 L8.2487395,18.6588235 C9.45546218,17.707563 10.1714286,16.9848739 11.0621849,16.087395 C11.6840336,15.4621849 12.3731092,14.7663866 13.3714286,13.8554622 L16.7764706,21.0319328 C16.8605042,21.2067227 17.0084034,21.3411765 17.1932773,21.405042 C17.3747899,21.4689076 17.5764706,21.4554622 17.7478992,21.3714286 L19.4420168,20.5445378 C19.7277311,20.4033613 19.8890756,20.0941176 19.8386555,19.7815126 L18.2218487,9.50252101 C19.1798319,8.62857143 22.2117647,5.86218487 22.487395,5.61344538 C23.9159664,4.3092437 24.0067227,2.61512605 22.7159664,1.17647059" id="Aeropuerto_Avion_2Regular"></path>
        </g>
    </g>
</svg>

<svg width="24" height="24" viewBox="0 0 24 24" xmlns="http://www.w3.org/2000/svg"><path d="M21.516 4.528c-.326.296-4.558 4.158-4.558 4.158a.733.733 0 00-.229.648l1.597 10.138-.558.273-3.51-7.392a.729.729 0 00-.51-.4.712.712 0 00-.622.168c-1.439 1.274-2.316 2.161-3.089 2.941-.928.935-1.657 1.67-2.978 2.683a.733.733 0 00-.283.631l.263 3.412-.424.205-1.869-3.143a.753.753 0 00-.225-.235l-2.797-1.839.199-.302 3.19.232a.739.739 0 00.625-.28c.978-1.266 1.724-1.992 2.669-2.91.8-.777 1.704-1.654 2.988-3.079a.72.72 0 00.171-.629.718.718 0 00-.403-.51L3.849 5.915l.37-.588 10.117 1.485c.235.03.474-.05.635-.225 1.526-1.647 4.04-4.343 4.29-4.568.84-.756 1.62-.716 2.376.125.76.843.72 1.623-.121 2.383m1.2-3.352C21.422-.259 19.731-.35 18.299.945c-.326.292-3.102 3.28-4.124 4.383l-10.209-1.5a.723.723 0 00-.716.33L2.188 5.842a.72.72 0 00-.08.592.713.713 0 00.39.45l7.156 3.311a55.204 55.204 0 01-2.256 2.282c-.907.884-1.64 1.597-2.564 2.757l-3.23-.232a.728.728 0 00-.656.326L.12 16.592a.722.722 0 00.208 1.001l3.26 2.145 2.125 3.57a.727.727 0 00.935.282l1.465-.706a.72.72 0 00.407-.71l-.272-3.515c1.206-.951 1.922-1.674 2.813-2.572.622-.625 1.311-1.32 2.31-2.232l3.404 7.177a.724.724 0 00.972.34l1.694-.827a.724.724 0 00.397-.763l-1.617-10.28c.958-.873 3.99-3.64 4.265-3.889 1.429-1.304 1.52-2.998.229-4.437" fill="#5CB615" fill-rule="nonzero"/></svg>
